!!!OTL-incipit: DA DRAUSSN AUF DEM BERGLE
!!!ARE: Europa, Mitteleuropa, Deutschland, Vogtland
!!!SCT: Z0132
!!!YEM: Copyright 1995, estate of Helmut Schaffrath.
**kern	**text
*ICvox	*
*M3/8	*
*k[b-]	*
*F:	*
!LO:TX:a:t=Vogtländiſch.	!
{8cc/	Da
=1	=1
8cc/	drauß'n
8a	auf
8b-/	dem
=2	=2
8cc/	Berg-
8cc/	-le,
8cc/	hu
=3	=3
8ff/}	hu,
{8cc/	do
8cc/	ſteht
=4	=4
8cc/	grod
8b-/	ſo
8a	a
=5	=5
8g	Huʒ-
8a	-ʒerl
8b-/	wie
=6	=6
8a}	du,
{8b-/	do
8cc/	ſteht
=7	=7
8cc/	grod
8b-/	ſo
8a	a
=8	=8
8g	Huʒ-
8a	-ʒerl
8b-/	wie
=9	=9
4a}	du.
==	==
!!!AGN: Erzaehlung, lustige Romanze
!!!ONB: ESAC (Essen Associative Code) Database: ZUCCAL
!!!AMT: simple triple
!!!AIN: vox
!!!EED: Helmut Schaffrath
!!!EEV: 1.0
!!@@COMMENT:"In original two voices"
!!@@END:
!!!GTL: II. Erzahlungen, lustige Romanzen, Kinder-Lieder und episch-lyrische Volks-Lieder.
!!!URL-scan: https://www.digitale-sammlungen.de/de/view/bsb11160571?page=249
!!!ENC: Anna Maria Matuszewska
!!!EEV: 2025/01/27
*-	*-
